X:1
T:The Gate Ajar for Me
T:The Gate Ajar for Me
T:Silas Jones Vail
T:Lydia Odell Baxter, 1870
T:Public Domain Courtesy of the Cyber Hymnal™
C:Silas Jones Vail
Z:Public Domain
Z:Courtesy of the Cyber Hymnal™
%%score 1 2
L:1/8
Q:1/4=110
M:6/8
K:C
V:1 treble 
V:2 bass 
V:1
 [EG] | [EG]2 [CE] [EG]2 [Gc] | [Ac]2 [FA] [EG]2 [CE] | [FA]2 [EG] [CE]2 C | [CE]3 [B,D]2 [DG] | %5
w: 1.~There|is a gate that|stands a- jar, And|through its por- tals|gleam- ing A|
w: 2.~That|gate a- jar stands|free for all Who|seek through it sal-|va- tion; The|
w: 3.~Press|on- ward, then, though|foes may frown, While|mer- cy’s gate is|o- pen; Ac-|
w: 4.~Be-|yond the ri- ver’s|brink we’ll lay The|cross that here is|giv- en, And|
 [EG]2 [CE] [EG]2 [Gc] | [Ac]2 [FA] [EG]2 [Ec] | [Ge]2 [Gc] [Ge]2 [Fd] | [Fd]3 [Ec]2 || %9
w: ra- diance from the|cross a- far, The|Sav- ior’s love re-|veal- ing.|
w: rich and poor, the|great and small, Of|ev- ery tribe and|na- tion.|
w: cept the cross, and|win the crown, Love’s|e- ver- las- ting|to- ken.|
w: bear the crown of|life a- way, And|love Him more in|Hea- ven.|
"^Refrain" [Ec] | [Fd]2 [E^c] [Fd]2 [Ge] | [Ec]2 [EA] [Ec]2 [FA] | [EG]2 [EG] [FA]2 [EG] | %13
w: ||||
w: O|depth of mer- cy!|Can it be That|gate was left a-|
w: ||||
w: ||||
 [CE]2 C [CE]2 [EG] | [EG]3- [EG]2 [Ec] | ([FA]3 [Ac]2) [Ec] | [Ge]2 [Gc] [Ge]2 [Fd] | %17
w: ||||
w: jar for me? For|me! * For|me! * Was|left a- jar for|
w: ||||
w: ||||
 [Ec]3- [Ec]2 |] %18
w: |
w: me! *|
w: |
w: |
V:2
 [C,C] | [C,C]2 [C,G,] [C,C]2 [E,C] | [F,C]2 [F,C] [C,C]2 [C,G,] | [C,C]2 [C,C] [C,G,]2 [E,G,] | %4
 G,3 G,2 [G,,B,] | [C,C]2 [C,G,] [C,C]2 [E,C] | [F,C]2 [F,C] [C,C]2 [C,C] | %7
 [C,C]2 [E,C] [G,C]2 [G,,G,] | [C,G,]3 [C,G,]2 || [C,G,] | G,2 G, G,2 [G,C] | %11
 [A,C]2 [A,C] [A,C]2 [F,C] | [C,C]2 [C,C] [C,C]2 [C,C] | [C,G,]2 [E,G,] G,2 z | z2 [C,C] [C,C]2 z | %15
 z2 ([F,C] [F,C]2) [C,C] | [C,C]2 [E,C] [G,C]2 [G,,G,] | [C,G,]3- [C,G,]2 |] %18

